X:1
T:Faut Marit's Polska (Alvdalen)
R:polska K1
Z:2002 Brian Wilson <Brian.Wilson@alumni.brown.edu>
Z:Chateau Neuf, Stolen Goods, Track 14
M:3/4
L:1/8
K:Am
||: "E"B2 c/B/c/d/ e>c | "E"B2 AB c>c
|   "E"B2 c/B/c/d/ e>c | "E"B2 AG E2
|   "E"B2 c/B/c/d/ e>c | "E"B2 AB c>c
|   "E"B2 c/B/c/d/ e>c | "E"B2 "Am"A4
:: "E"e2 ^gb "Am"a>a | "Am"a2 g/a/g/e/ "Dm"f>f
| "Dm"f>e d>e "Dm"f<g | "Dm/A"a>f (3dfd "E"e2
|  "E"e2 ^gb "Am"a>a | "Am"a2 g/a/g/e/ "Dm"f>f
| "Dm"f>e d>f "Dm"a<f | "E"f>e e4  :|
